packages/icons/src/components/ProductIcon/assets/instance-template.svg

<svg width="64" height="64" viewBox="0 0 64 64" fill="none" xmlns="http://www.w3.org/2000/svg">
<path d="M0 16C0 7.16344 7.16344 0 16 0H48C56.8366 0 64 7.16344 64 16V48C64 56.8366 56.8366 64 48 64H16C7.16344 64 0 56.8366 0 48V16Z" fill="#521094" class="fillWeak"/>
<path fill-rule="evenodd" clip-rule="evenodd" d="M48 2H16C8.26801 2 2 8.26801 2 16V48C2 55.732 8.26801 62 16 62H48C55.732 62 62 55.732 62 48V16C62 8.26801 55.732 2 48 2ZM16 0C7.16344 0 0 7.16344 0 16V48C0 56.8366 7.16344 64 16 64H48C56.8366 64 64 56.8366 64 48V16C64 7.16344 56.8366 0 48 0H16Z" fill="#521094" class="fillWeak"/>
<path d="M37.8662 12C38.1966 12 38.5089 12.1436 38.7109 12.3887L47.7773 23.3887C47.9216 23.5638 48 23.7787 48 24C48 24 48 46.5 48 48C48 49.5 46.9331 51 44.7998 51H19.2002C17.4329 51 16 49.6569 16 48V15C16 13.3431 17.4329 12 19.2002 12H37.8662ZM19.2002 14C18.6111 14 18.1338 14.4477 18.1338 15V48C18.1338 48.5523 18.6111 49 19.2002 49H44.7998C45.3331 49 45.8662 48.5523 45.8662 48V25H40C38.2327 25 36.7998 23.6569 36.7998 22V14H19.2002ZM38.9336 22C38.9336 22.5523 39.4109 23 40 23H44.7607L38.9336 15.9297V22Z" fill="white" class="fill"/>
<path fill-rule="evenodd" clip-rule="evenodd" d="M29 31C27.3431 31 26 32.3431 26 34H24C23.4477 34 23 34.4477 23 35C23 35.5523 23.4477 36 24 36H26V38H24C23.4477 38 23 38.4477 23 39C23 39.5523 23.4477 40 24 40H26C26 41.6569 27.3431 43 29 43V45C29 45.5523 29.4477 46 30 46C30.5523 46 31 45.5523 31 45V43H33V45C33 45.5523 33.4477 46 34 46C34.5523 46 35 45.5523 35 45V43C36.6569 43 38 41.6569 38 40H40C40.5523 40 41 39.5523 41 39C41 38.4477 40.5523 38 40 38H38V36H40C40.5523 36 41 35.5523 41 35C41 34.4477 40.5523 34 40 34H38C38 32.3431 36.6569 31 35 31V29C35 28.4477 34.5523 28 34 28C33.4477 28 33 28.4477 33 29V31H31V29C31 28.4477 30.5523 28 30 28C29.4477 28 29 28.4477 29 29V31ZM36 34C36 33.4477 35.5523 33 35 33H29C28.4477 33 28 33.4477 28 34V40C28 40.5523 28.4477 41 29 41H35C35.5523 41 36 40.5523 36 40V34Z" fill="#BF95F9" class="fillStrong"/>
</svg>

<svg xmlns="http://www.w3.org/2000/svg" width="64" height="64" fill="none" viewBox="0 0 64 64">
    <path fill="#521094" d="M0 16C0 7.163 7.163 0 16 0h32c8.837 0 16 7.163 16 16v32c0 8.837-7.163 16-16 16H16C7.163 64 0 56.837 0 48z" class="fillWeak"/>
    <path fill="#521094" fill-rule="evenodd" d="M48 2H16C8.268 2 2 8.268 2 16v32c0 7.732 6.268 14 14 14h32c7.732 0 14-6.268 14-14V16c0-7.732-6.268-14-14-14M16 0C7.163 0 0 7.163 0 16v32c0 8.837 7.163 16 16 16h32c8.837 0 16-7.163 16-16V16c0-8.837-7.163-16-16-16z" class="fillWeak" clip-rule="evenodd"/>
    <path fill="#fff" d="M37.866 12c.33 0 .643.144.845.389l9.066 11A.96.96 0 0 1 48 24v24c0 1.5-1.067 3-3.2 3H19.2c-1.767 0-3.2-1.343-3.2-3V15c0-1.657 1.433-3 3.2-3zM19.2 14c-.589 0-1.066.448-1.066 1v33c0 .552.477 1 1.066 1h25.6c.533 0 1.066-.448 1.066-1V25H40c-1.767 0-3.2-1.343-3.2-3v-8zm19.734 8c0 .552.477 1 1.066 1h4.76l-5.826-7.07z" class="fill"/>
    <path fill="#bf95f9" fill-rule="evenodd" d="M29 31a3 3 0 0 0-3 3h-2a1 1 0 1 0 0 2h2v2h-2a1 1 0 1 0 0 2h2a3 3 0 0 0 3 3v2a1 1 0 1 0 2 0v-2h2v2a1 1 0 1 0 2 0v-2a3 3 0 0 0 3-3h2a1 1 0 1 0 0-2h-2v-2h2a1 1 0 1 0 0-2h-2a3 3 0 0 0-3-3v-2a1 1 0 1 0-2 0v2h-2v-2a1 1 0 1 0-2 0zm7 3a1 1 0 0 0-1-1h-6a1 1 0 0 0-1 1v6a1 1 0 0 0 1 1h6a1 1 0 0 0 1-1z" class="fillStrong" clip-rule="evenodd"/>
</svg>
